background {hue 99 sat 0.8 b 1 alpha 0.7}
startshape init

rule init {
     12* {x 20}{ 
        6* {y 20}{
           init1{ }
        }
     }
}     

rule init1 {
     4* {r 90}{
        init2{}
    }
}
rule init2 {
     SQUARE { s 1 3 }
     TRIANGLE {y 1.789 }
     init2 {s 0.97 r 5 x 1 y 1}
}
     
