background {hue 249 sat 0.563 b 0.3}
startshape init

rule init {
     CIRCLE {}
     SQUARE {x 0.5 s 2 0.25}
     SQUARE {x -0.5 s 2 0.25}
     init {x 1.8 r -90 s 0.7 brightness 0.2}
     init {x -1.8 r 90 s 0.7}
}