startshape start

// cfdg moire_circles.cfdg -s 1080 -a 15x25 -o ta%f.png
// ffmpeg -r 25 -i ./ta%3d.png -c:v libx264 out.mp4

CF::Time = [time -2 2]
CF::Background = [b 1]
CF::Size = [s 3]

path circ(number rad) {
    MOVETO(rad,0)
    ARCTO(-rad,0,rad, CF::ArcCW)
    ARCTO(rad,0,rad, CF::ArcCW)
    STROKE(0.01)[]
}
     
shape moire {
    loop 70 [s 0.98]
        circ(1)[]
}
      
shape start {
    moire[x ftime() time -2 2 s 1]
    moire[x -ftime() time -2 2 s 1]
}
